!!!OTL: Tanhaeuser
!!!ARE: Europa, Mitteleuropa, Deutschland
!!!SCT: A0021
!!!YEM: Copyright 1995, estate of Helmut Schaffrath.
**kern
*ICvox
*Ivox
*M4/1
*k[b-]
*F:
{1f
1f
1f
=1
1g
1a
1b-
1b-
=2
1a
1g
1r}
{1g
=3
1cc
1cc
1b-
1f
=4
1g
1a
1b-
1r}
=5
{1g
1b-
1.a
2g
=6
1cc
1b-
0a
=7
1r}
{1g
1a
1b-
=8
1cc
1f
0g
=9
[0f
0f]
=10
1r}
==
!!!AGN: Romanze, Ballade, Lied
!! Die Melodie des alten, echten Volksliedes vom Tanhaeuser habe
!!    ich gluecklicherweise gefunden im 8. Quodlibet bei W. Schmeltzel
!!    1544. Die vierte, fehlende Zeile habe ich musikalisch zu ergaen-
!!    zen versucht.
!!!ONB: ESAC (Essen Associative Code) Database: ALTDEU
!!!AMT: simple quadruple
!!!AIN: vox
!!!EED: Helmut Schaffrath
!!!EEV: 1.0
*-
